X:69
T:Dido's Lament (When I am laid in earth)
C:Purcell, H.
M:3/2
L:1/8
Q:3/2=52
K:Gmin
|:G2|d6 d4 cd|B6 B4 Bc|d4 e2 f4 d2|g6 g4 fg|
a6 a4 fg|a4 b2 a4 g2|f4 e2 d4 c2|d6 d4:|

